packages/foundations/assets/icons/functional/images/transportation/taxi_16_inverted.svg

<svg width="16" height="16" viewBox="0 0 16 16" fill="none" xmlns="http://www.w3.org/2000/svg">
<g clip-path="url(#clip0_2214_6774)">
<path fill-rule="evenodd" clip-rule="evenodd" d="M10.4 2V3.2048L10.9644 3.20538C11.6149 3.25888 12.2262 3.75557 12.3919 4.32808C12.5024 4.70976 12.7192 5.66707 13.0424 7.2H14.4V8.80269L13.516 8.8C13.396 9.99419 13.316 10.6953 13.2759 10.9032C13.2159 11.2151 13.0424 11.623 12.8 11.8608V14H10.8V12.5928C9.86664 12.7309 8.93331 12.8 7.99998 12.8C7.06664 12.8 6.13331 12.7309 5.19998 12.5928V14H3.19998V11.8608C3.01591 11.6827 2.84447 11.3677 2.75998 11.0571C2.70365 10.8501 2.61139 10.0977 2.48318 8.8L1.59998 8.80269V7.2H2.95678L3.56571 4.4547C3.75611 3.81064 4.27153 3.32631 4.90697 3.22127C5.0427 3.20119 5.27371 3.1957 5.59998 3.2048V2H10.4ZM9.59998 8.92H6.39998V10.28H9.59998V8.92ZM12 8.92H10.4V10.28H12V8.92ZM5.59998 8.92H3.99998V10.28H5.59998V8.92ZM11.131 4.56H4.86898L4.35438 7.2H11.6448L11.131 4.56Z" fill="#1A1C1F"/>
</g>
<defs>
<clipPath id="clip0_2214_6774">
<rect width="16" height="16" fill="white"/>
</clipPath>
</defs>
</svg>

<svg xmlns="http://www.w3.org/2000/svg" width="16" height="16" fill="none"><g clip-path="url(#a)"><path fill="#1A1C1F" fill-rule="evenodd" d="M10.4 2v1.205h.564c.65.054 1.262.55 1.428 1.123q.165.573.65 2.872H14.4v1.603l-.884-.003q-.18 1.791-.24 2.103c-.06.312-.234.72-.476.958V14h-2v-1.407a19.1 19.1 0 0 1-5.6 0V14h-2v-2.14c-.184-.177-.356-.492-.44-.803q-.084-.311-.277-2.257l-.883.003V7.2h1.357l.609-2.745c.19-.644.706-1.129 1.341-1.234a4.6 4.6 0 0 1 .693-.016V2zm-.8 6.92H6.4v1.36h3.2zm2.4 0h-1.6v1.36H12zm-6.4 0H4v1.36h1.6zm5.531-4.36H4.869L4.354 7.2h7.29z" clip-rule="evenodd"/></g><defs><clipPath id="a"><path fill="#fff" d="M0 0h16v16H0z"/></clipPath></defs></svg>
